X: 5
T: The Peacock's Feathers
R: hornpipe
M: 4/4
L: 1/8
K: Bmin
BA|:GEFD E2EF|GFGB A2GA|B2e2 edBA|GEB,C D2BA|
GEFD E2EF|GFGB A2GA|Beed edBA|[1 G2E2 E2BA:|[2 G2E2 E2Bc||
:d2dB e2ed|edB^G A2Bc|d2Be edBA|GEB,C D2BA|
GEFD E2EF|GFGB A2GA|Beed edBA|[1 G2E2 E2Bc:|[ 2G2E2 E4||


Tune 663	Setting 13702

